X:61
M:2/4
L:1/8
K:D
| A/B/A/G/ FA | de f2 | gf/e/ fe | df A2 | 
| e>f ed | ce a2 | e>^d ef | ge cA | 
e>f ed | ce a2 | gf/e/ fe | d2 d2 :|| 

